X: 143109
T: The SHERWOOD RANGERS
Q: "Hornpipe."
R:  Hornpipe.
%R: hornpipe
B: James Kerr "Merry Melodies" v.1 p.43 s.1 #9
Z: 2016 John Chambers <jc:trillian.mit.edu>
M: C
L: 1/8
K: D
(uF>G) |\
A>^GA>B A2(d>e) | f>gf>e d2A2 |\
B>cd>B A>BA>F | G2E2E2 (F>G) |\
A>BA>^G A2(d>e) | f>gf>e d2A2 |\
B>cd>B A>BA>G | F2D2D2 |]
ug2 |\
f>ef>g a>fd>g | f>ef>g a>fd>f |\
g>ab>g f>ga>f | e>^de>f e2 (F>G) |\
A>^GA>B A2(d>e) | f>gf>e d2A2 |\
B>cd>B A>BA>G | F2D2D2 H|]

%%sep 1 1 500
%%sep 1 1 500

